light/nitro.svg

<svg xmlns="http://www.w3.org/2000/svg" viewBox="0 0 349.3 87" enable-background="new 0 0 349.3 87"><style type="text/css">.st0{fill:#FFFFFF;} .st1{fill:#FFFFFF;}</style><path id="path3843" class="st0" d="M4 3.2v80.7h18.5v-51.9l31.2 51.8h17.5v-80.6h-18.5v51.8l-31.2-51.8h-17.5zm78 0v80.7h20.5v-80.7h-20.5zm28.3 0v17.4h16.1v63.2h20.5v-63.2h16.1v-17.4h-52.7zm59.4 0v80.7l20.5.1v-62.9h20.6c6.2 0 11.2 5.1 11.2 11.5s-5 11.4-11.2 11.4h-18.7l28.3 39.8h23.4l-21.2-26.7c11.6-3 20.2-13.7 20.2-26.5 0-15.2-12-27.4-26.8-27.4h-46.3zm117 0c-22.6 0-40.9 18.1-40.9 40.3s18.3 40.3 40.9 40.3c22.6 0 40.9-18.1 40.9-40.3s-18.3-40.3-40.9-40.3zm0 17.8c11.8 0 21.4 10.1 21.4 22.5s-9.6 22.4-21.4 22.4c-11.8 0-21.4-10-21.4-22.4s9.6-22.5 21.4-22.5z"/><path class="st1" d="M326.5 65.4h17.5v17.5h-17.5z"/></svg>

<svg xmlns="http://www.w3.org/2000/svg" viewBox="0 0 349.3 87"><path d="M4 3.2v80.7h18.5V32l31.2 51.8h17.5V3.2H52.7V55L21.5 3.2H4zm78 0v80.7h20.5V3.2H82zm28.3 0v17.4h16.1v63.2h20.5V20.6H163V3.2h-52.7zm59.4 0v80.7l20.5.1V21.1h20.6c6.2 0 11.2 5.1 11.2 11.5S217 44 210.8 44h-18.7l28.3 39.8h23.4l-21.2-26.7c11.6-3 20.2-13.7 20.2-26.5 0-15.2-12-27.4-26.8-27.4h-46.3zm117 0c-22.6 0-40.9 18.1-40.9 40.3s18.3 40.3 40.9 40.3c22.6 0 40.9-18.1 40.9-40.3S309.3 3.2 286.7 3.2zm0 17.8c11.8 0 21.4 10.1 21.4 22.5s-9.6 22.4-21.4 22.4c-11.8 0-21.4-10-21.4-22.4S274.9 21 286.7 21z" fill="#bfbdc2"/><path fill="#bae637" d="M326.5 65.4H344v17.5h-17.5z"/></svg>
